X: 463
T: Missa In duplicibus minoribus (I) Et iterum Credo
C: Giovanni Perluigi da Palestrina
L: 1/4
M: 4/2
N: Derived from Credo_31_f.krn
Q: "Credo"
V: 1 clef=treble
V: 2 clef=treble
V: 3 clef=treble-8
V: 4 clef=treble-8
V: 5 clef=bass
K: C
[V:1] z8 | 
[V:2] z8 | 
[V:3] z4z2B2 | 
[V:4] z8 | 
[V:5] E,4F,2G,2 | 
[V:1] z4z2E2 | 
[V:2] z8 | 
[V:3] c2d2edcB | 
[V:4] z8 | 
[V:5] A,2G,F,E,2A,2- | 
[V:1] F2G2A4 | 
[V:2] z8 | 
[V:3] c2B2A2A2 | 
[V:4] z4z2A2 | 
[V:5] A,2G,4^F,2 | 
[V:1] z2E2F2G2 | 
[V:2] z8 | 
[V:3] G4z4 | 
[V:4] B2c2d2cB | 
[V:5] G,2C,2z2E,2 | 
[V:1] A2GFE2A2- | 
[V:2] z4z2A,2 | 
[V:3] z8 | 
[V:4] A2d2>c2c2 | 
[V:5] F,2G,2A,2F,2 | 
[V:1] A2G4^FE | 
[V:2] B,2C2D3C/ B,/ | 
[V:3] z8 | 
[V:4] B2G2A4 | 
[V:5] G,2E,2D,4- | 
[V:1] ^F2F2G4- | 
[V:2] A,2D4C2- | 
[V:3] D4E3F | 
[V:4] d4B2e2 | 
[V:5] D,4z4 | 
[V:1] G4z4 | 
[V:2] C2B,2C2DE | 
[V:3] G2G2A2B2 | 
[V:4] d4z4 | 
[V:5] z4z2G,2 | 
[V:1] z8 | 
[V:2] F2G4F2- | 
[V:3] c4F4 | 
[V:4] z2G2A2B2 | 
[V:5] F,2E,2D,4 | 
[V:1] z2G2F2E2 | 
[V:2] F2E2DCC2- | 
[V:3] G4z4 | 
[V:4] c4F4 | 
[V:5] C,4z4 | 
[V:1] D4C4 | 
[V:2] C2B,2E4- | 
[V:3] z4z2A2- | 
[V:4] G4z4 | 
[V:5] z4z2C2- | 
[V:1] z2E4E2 | 
[V:2] E4z2C2- | 
[V:3] A2A2c2c2 | 
[V:4] z8 | 
[V:5] C2C2A,4 | 
[V:1] G2G2A4 | 
[V:2] C2B,2A,2A,2 | 
[V:3] d6c2 | 
[V:4] z8 | 
[V:5] G,4F,4 | 
[V:1] G2F4E2- | 
[V:2] D4C2B,2- | 
[V:3] B2A4G2 | 
[V:4] z8 | 
[V:5] G,2D,2E,4 | 
[V:1] E2D2E2E2- | 
[V:2] B,2A,4^G,2 | 
[V:3] A4B4 | 
[V:4] z8 | 
[V:5] F,2>F,2E,4 | 
[V:1] E2F2G4 | 
[V:2] A,2C2D2E2- | 
[V:3] c4z4 | 
[V:4] z2A2B2c2- | 
[V:5] A,,4z4 | 
[V:1] E2F2G4- | 
[V:2] E2C2D2E2- | 
[V:3] z8 | 
[V:4] c2A2B2c2 | 
[V:5] z8 | 
[V:1] G4D2F2- | 
[V:2] EDC2B,2A,G, | 
[V:3] z8 | 
[V:4] CDEFG2DE | 
[V:5] z8 | 
[V:1] FEED/ C/D4 | 
[V:2] A,B,C4B,2 | 
[V:3] z8 | 
[V:4] FGA2G4 | 
[V:5] z8 | 
[V:1] E8 | 
[V:2] CDEFG2E2 | 
[V:3] z2A2B2c2 | 
[V:4] z8 | 
[V:5] z4E,4 | 
[V:1] z8 | 
[V:2] D4E2D2- | 
[V:3] A2B2c2d2 | 
[V:4] z2G4A2 | 
[V:5] ^F,2G,2E,2F,2 | 
[V:1] z8 | 
[V:2] D2E2F4- | 
[V:3] B2>c2ded2- | 
[V:4] B2G2A2B2- | 
[V:5] G,4D,3E, | 
[V:1] z4B4 | 
[V:2] F2D2E4- | 
[V:3] dcA2B4 | 
[V:4] BAA4^G2 | 
[V:5] F,4E,4 | 
[V:1] c2c2A4 | 
[V:2] E8 | 
[V:3] A8 | 
[V:4] A2>B2c4 | 
[V:5] A,,8 | 
[V:1] B8- | 
[V:2] E8- | 
[V:3] ^G8- | 
[V:4] B8- | 
[V:5] E,8- | 
[V:1] B8
[V:2] E8
[V:3] G8
[V:4] B8
[V:5] E,8

